public/avatar/hat/231.svg

<svg xmlns:xlink="http://www.w3.org/1999/xlink" height="92.9" width="100.7" xmlns="http://www.w3.org/2000/svg"><use height="36.7" transform="translate(23.7 24.85)" width="30.25" xlink:href="#a"/><defs><g id="a" fill-rule="evenodd"><path d="M3 .45Q6.2.45 8.3 4l3.2 7.2-4.8-3.75Q3.05 5.2.15 5.2q-3.5 0-7.4 2.45l-5 3.45q1.65-4.7 5.95-7.9Q-1.75-.25 3 .45" fill="#4f4f4f" transform="translate(14.95 24.9)"/><path d="M10.35-24.6q.6 0 1.15 1.9 1.7-1.1 2-.95.35.25.35 1l-.3 2L15-21.1l.25.15.05.4q0 1.75-1 5.35l.6 5 .25 6.95-.5 6.05-1.85 8.15q0 .85-.45.85l-.85-.6L8.3 4Q6.2.45 3 .45q-4.75-.7-9.3 2.75-4.3 3.2-5.95 7.9l-.2.1-.3-.25-2.05-9.15v-5l.25-7 .45-5.55-.85-5.55.05-.4.25-.15q.3-.05 1.8 1.2l-.45-2.3q0-1 .3-1.25l2.05 1.45q.55-2.15 1-2.15.6 0 1.6 2.65l1.1-1.3.3-.05.15.25.55 3.8 4.2 9.05 2.6 7.3 6-15.6.6-3.8.15-.25.3.05 1.3 1.1q1.1-2.9 1.45-2.9" fill="#262626" transform="translate(14.95 24.9)"/><path d="m.5-.9 4.7-11.95q3.7-8.85 5.75-8.85 3.6 0 2.65 23.5 0 1.25-2.1 8.35Q6 4.2.35 4.1q-3.55.05-8.15 2.85l-3.95 2.8q-1.8-6.85-1.8-8.1-.15-6.75.2-12.6.6-11.5 2.85-11.5 2.1 0 6.1 9.25Q-2.25-8.3.5-.9" fill="#858585" transform="translate(14.95 24.9)"/><path d="M10.05-17.2q2.1.3.35 18.5L9.2-.5 7.75.65 7.5-3.2 5.4-.45l-.15-1.3L3.1-.2l2.7-8.65q2.95-8.55 4.25-8.35M-2.6-.2l-2.15-1.55-.15 1.3L-7-3.2-7.25.65-8.7-.5l-1.2 1.8-.75-9.5q-.45-9.55.85-9.75 2.05-.3 7.2 17.75" fill="#b5b5b5" transform="translate(14.95 24.9)"/><path d="M10.65-17.75 7.9-18.1l.15-3.75.85 1.25 1.65-2.95.45 2.05 2-1.3-.3 3.8 1.55-1-1.05 5.95-2.55-3.7m-20.6-6.2 1.6 2.9.85-1.25.2 3.75-2.8.4-2.5 3.7-1.1-5.95 1.6 1-.3-3.8 1.95 1.3.5-2.05" fill="#858585" transform="translate(14.95 24.9)"/><path d="M5.4-.45 5.3-1.6 3.1-.2l2.45-2.85.4.95L7.5-5l.7 4.4 1.1-.6 1.1 2.5L9.2-.35 7.7.8l-.5-3.5L5.4-.45m-8 .4L-4.85-1.5l-.1 1.2-1.75-2.3-.5 3.55-1.5-1.2-1.2 1.7 1.05-2.5 1.15.55.7-4.35L-5.45-2l.35-.95 2.5 2.9" fill="#4c4c4c" transform="translate(14.95 24.9)"/><path d="M5.05-6.55 7.8-14.1q1.4-3.15 2.25-3.1.75 0 .85 2.3l-.95-1.35-.3 1.2-.45-.4-4.15 8.9m-15.6.6q-.5-3.85-.3-7.25.35-4.9 1-4.9t.9.85l-.85.5-.75 10.8" fill="#545454" transform="translate(14.95 24.9)"/><path d="m-12.25-15.95-.25 5.9.15 7.95q.35 3.6 1.5 7.8l.85 2.6-1.75 1.45-.05-.25q-1.95-6.8-1.95-8.5l.5-14.75.3-2.25-1-4.35.5.15 1.2 4.25M.7-1.2l4.6-12.15q.9-2.6 2.25-5v-3.5l.6.35.3 3.3-4.5 10.75Q3.2-5.5.7-1.2m-6.4-.25L-7.2.95l.65-3.55.85 1.15M2.05.75l2 .15-4.5 2.35 2.5-2.5m3.4 1 .95.65-3.25.9 2.3-1.55" fill="#a8a8a8" transform="translate(14.95 24.9)"/><path d="m-10.55 7.05.75-5.1 1.05 4.7-.2 1.15-1.05.7-.55-1.45m2.5.15.6-4.7.65 3.95-1.25.75" fill="#a8a8a8" transform="translate(14.95 24.9)"/></g></defs></svg>

<?xml version="1.0" encoding="UTF-8" standalone="no"?>
<svg xmlns:xlink="http://www.w3.org/1999/xlink" height="92.9px" width="100.7px" xmlns="http://www.w3.org/2000/svg">
  <g transform="matrix(1.0, 0.0, 0.0, 1.0, 38.65, 49.75)">
    <use height="36.7" transform="matrix(1.0, 0.0, 0.0, 1.0, -14.95, -24.9)" width="30.25" xlink:href="#shape0"/>
  </g>
  <defs>
    <g id="shape0" transform="matrix(1.0, 0.0, 0.0, 1.0, 14.95, 24.9)">
      <path d="M3.0 0.45 Q6.2 0.45 8.3 4.0 L11.5 11.2 6.7 7.45 Q3.05 5.2 0.15 5.2 -3.35 5.2 -7.25 7.65 L-12.25 11.1 Q-10.6 6.4 -6.3 3.2 -1.75 -0.25 3.0 0.45" fill="#4f4f4f" fill-rule="evenodd" stroke="none"/>
      <path d="M10.35 -24.6 Q10.95 -24.6 11.5 -22.7 13.2 -23.8 13.5 -23.65 13.85 -23.4 13.85 -22.65 L13.55 -20.65 15.0 -21.1 15.25 -20.95 15.3 -20.55 Q15.3 -18.8 14.3 -15.2 L14.9 -10.2 15.15 -3.25 14.65 2.8 12.8 10.95 Q12.8 11.8 12.35 11.8 L11.5 11.2 8.3 4.0 Q6.2 0.45 3.0 0.45 -1.75 -0.25 -6.3 3.2 -10.6 6.4 -12.25 11.1 L-12.45 11.2 -12.75 10.95 -14.8 1.8 -14.8 -3.2 -14.55 -10.2 -14.1 -15.75 -14.95 -21.3 -14.9 -21.7 -14.65 -21.85 Q-14.35 -21.9 -12.85 -20.65 L-13.3 -22.95 Q-13.3 -23.95 -13.0 -24.2 L-10.95 -22.75 Q-10.4 -24.9 -9.95 -24.9 -9.35 -24.9 -8.35 -22.25 L-7.25 -23.55 -6.95 -23.6 -6.8 -23.35 -6.25 -19.55 -2.05 -10.5 0.55 -3.2 6.55 -18.8 7.15 -22.6 7.3 -22.85 7.6 -22.8 8.9 -21.7 Q10.0 -24.6 10.35 -24.6" fill="#262626" fill-rule="evenodd" stroke="none"/>
      <path d="M0.5 -0.9 L5.2 -12.85 Q8.9 -21.7 10.95 -21.7 14.55 -21.7 13.6 1.8 13.6 3.05 11.5 10.15 6.0 4.2 0.35 4.1 -3.2 4.15 -7.8 6.95 L-11.75 9.75 Q-13.55 2.9 -13.55 1.65 -13.7 -5.1 -13.35 -10.95 -12.75 -22.45 -10.5 -22.45 -8.4 -22.45 -4.4 -13.2 -2.25 -8.3 0.5 -0.9" fill="#858585" fill-rule="evenodd" stroke="none"/>
      <path d="M10.05 -17.2 Q12.15 -16.9 10.4 1.3 L9.2 -0.5 7.75 0.65 7.5 -3.2 5.4 -0.45 5.25 -1.75 3.1 -0.2 5.8 -8.85 Q8.75 -17.4 10.05 -17.2" fill="#b5b5b5" fill-rule="evenodd" stroke="none"/>
      <path d="M-2.6 -0.2 L-4.75 -1.75 -4.9 -0.45 -7.0 -3.2 -7.25 0.65 -8.7 -0.5 -9.9 1.3 -10.65 -8.2 Q-11.1 -17.75 -9.8 -17.95 -7.75 -18.25 -2.6 -0.2" fill="#b5b5b5" fill-rule="evenodd" stroke="none"/>
      <path d="M10.65 -17.75 L7.9 -18.1 8.05 -21.85 8.9 -20.6 10.55 -23.55 11.0 -21.5 13.0 -22.8 12.7 -19.0 14.25 -20.0 13.2 -14.05 10.65 -17.75" fill="#858585" fill-rule="evenodd" stroke="none"/>
      <path d="M-9.95 -23.95 L-8.35 -21.05 -7.5 -22.3 -7.3 -18.55 -10.1 -18.15 -12.6 -14.45 -13.7 -20.4 -12.1 -19.4 -12.4 -23.2 -10.45 -21.9 -9.95 -23.95" fill="#858585" fill-rule="evenodd" stroke="none"/>
      <path d="M5.4 -0.45 L5.3 -1.6 3.1 -0.2 5.55 -3.05 5.95 -2.1 7.5 -5.0 8.2 -0.6 9.3 -1.2 10.4 1.3 9.2 -0.35 7.7 0.8 7.2 -2.7 5.4 -0.45" fill="#4c4c4c" fill-rule="evenodd" stroke="none"/>
      <path d="M-2.6 -0.05 L-4.85 -1.5 -4.95 -0.3 -6.7 -2.6 -7.2 0.95 -8.7 -0.25 -9.9 1.45 -8.85 -1.05 -7.7 -0.5 -7.0 -4.85 -5.45 -2.0 -5.1 -2.95 -2.6 -0.05" fill="#4c4c4c" fill-rule="evenodd" stroke="none"/>
      <path d="M5.05 -6.55 L7.8 -14.1 Q9.2 -17.25 10.05 -17.2 10.8 -17.2 10.9 -14.9 L9.95 -16.25 9.65 -15.05 9.2 -15.45 5.05 -6.55" fill="#545454" fill-rule="evenodd" stroke="none"/>
      <path d="M-10.55 -5.95 Q-11.05 -9.8 -10.85 -13.2 -10.5 -18.1 -9.85 -18.1 -9.2 -18.1 -8.95 -17.25 L-9.8 -16.75 -10.55 -5.95" fill="#545454" fill-rule="evenodd" stroke="none"/>
      <path d="M-12.25 -15.95 L-12.5 -10.05 -12.35 -2.1 Q-12.0 1.5 -10.85 5.7 L-10.0 8.3 -11.75 9.75 -11.8 9.5 Q-13.75 2.7 -13.75 1.0 L-13.25 -13.75 -12.95 -16.0 -13.95 -20.35 -13.45 -20.2 -12.25 -15.95" fill="#a8a8a8" fill-rule="evenodd" stroke="none"/>
      <path d="M0.7 -1.2 L5.3 -13.35 Q6.2 -15.95 7.55 -18.35 L7.55 -21.85 8.15 -21.5 8.45 -18.2 3.95 -7.45 Q3.2 -5.5 0.7 -1.2" fill="#a8a8a8" fill-rule="evenodd" stroke="none"/>
      <path d="M-5.7 -1.45 L-7.2 0.95 -6.55 -2.6 -5.7 -1.45" fill="#a8a8a8" fill-rule="evenodd" stroke="none"/>
      <path d="M2.05 0.75 L4.05 0.9 -0.45 3.25 2.05 0.75" fill="#a8a8a8" fill-rule="evenodd" stroke="none"/>
      <path d="M5.45 1.75 L6.4 2.4 3.15 3.3 5.45 1.75" fill="#a8a8a8" fill-rule="evenodd" stroke="none"/>
      <path d="M-10.55 7.05 L-9.8 1.95 -8.75 6.65 -8.95 7.8 -10.0 8.5 -10.55 7.05" fill="#a8a8a8" fill-rule="evenodd" stroke="none"/>
      <path d="M-8.05 7.2 L-7.45 2.5 -6.8 6.45 -8.05 7.2" fill="#a8a8a8" fill-rule="evenodd" stroke="none"/>
    </g>
  </defs>
</svg>
